X:1
T:Title
%%score { ( 1 4 ) | ( 2 3 ) }
L:1/8
M:4/4
K:Db
V:1 treble nm="Grand Piano"
V:4 treble 
V:2 bass 
V:3 bass 
V:1
 z4 z2[Q:1/4=106] [FA][EG] | [DF]2 [FA]2 d2 F2 | A2 G4 [EG]F | [A,CE]2 [CEG]2 [EGc]2 [CGB]2 | %4
[M:3/4] [FB]2 [FA]4 |[M:1/4] [FA][EG] |[M:4/4] [DF]2 [FA]2 [Fd]2 [Af]2 | e2 B4 d>d | %8
 [Ac][Ae][Ae][Ae] [=Ge][Gd][Gc][GB] |[M:3/4] A6 |[M:1/4] A>B | %11
[M:4/4] [FA][Fd] [Fd]>[Fe] [Fd][FA][_F=G][=FA] | [GB]6 z2 | [=GB][Ge] [Ge]>[Gf] [Ge][GB][Gc][Gd] | %14
 [Ac]6 z2 |[M:7/8] [DFA][Fd][Fd]>[Fd] [Fd]3 |[M:1/8] [Ad] |[M:4/4] ed d>B d3 B | BA=GA ccBA | %19
[M:3/4] d6 |] %20
V:2
 z4 z2 [D,A,]2 | [D,A,]2 [D,D]2 [F,A,D]2 [D,A,D]2 | [E,A,C]2 [E,A,C]4 z D | A,,2 A,,2 A,,2 A,,2 | %4
[M:3/4] [D,D]2 [D,D]4 |[M:1/4] [D,A,]2 |[M:4/4] [D,A,]2 [D,D]2 [D,A,]2 [D,_C]2 | %7
 [G,B,G]2 [G,DG]4 [G,B,G]>[G,B,G] | [E,A,][E,C][E,C][E,C] [E,B,][E,B,][E,E][E,D] | %9
[M:3/4][K:treble] CC D=D E2 |[M:1/4] [A,CG]>[A,CG] | %11
[M:4/4][K:bass] [D,D][D,A,] [D,A,]>[D,A,] [D,A,][D,D][D,D][D,D] | [G,D]G, G,>G, G,2 [G,DG]>[G,DG] | %13
 [E,E][E,B,] [E,B,]>[E,B,] [E,B,][E,E][E,E][E,E] | [A,E]A, A,>A, A,G,F,E, | %15
[M:7/8] D,[D,A,][D,A,]>[D,A,] [D,A,]3 |[M:1/8] [F,A,] | %17
[M:4/4][K:treble] [G,B,G][G,B,G] [G,B,G]>[G,DG] [=G,B,_F]3 [G,DF] | %18
 [A,DF][A,DF][A,D_F][A,D=F] [A,EG][A,EG][A,DG][A,CG] |[M:3/4][K:bass] z A, CB, A,2 |] %20
V:3
 x8 | x8 | z4 z2 [A,,A,]2 | x8 |[M:3/4] x6 |[M:1/4] x2 |[M:4/4] x8 | x8 | x8 | %9
[M:3/4][K:treble] A,6 |[M:1/4] x2 |[M:4/4][K:bass] x8 | x8 | x8 | x8 |[M:7/8] x7 |[M:1/8] x | %17
[M:4/4][K:treble] x8 | x8 |[M:3/4][K:bass] D,6 |] %20
V:4
 x8 | x8 | x8 | x8 |[M:3/4] x6 |[M:1/4] x2 |[M:4/4] x8 | x8 | x8 |[M:3/4] z E _F=F G2 |[M:1/4] x2 | %11
[M:4/4] x8 | z D D>D D2 B>c | x8 | z E E>E E2 [CGA]2 |[M:7/8] x7 |[M:1/8] x |[M:4/4] x8 | x8 | %19
[M:3/4] [DF]F AG F2 |] %20

